X:1
T:Violin Partita No. 2 in D Minor
T:Violin Partita No. 2 in D Minor
T:BWV 1004
T:Johann Sebastian Bach
C:Johann Sebastian Bach
%%score ( 1 2 3 4 )
L:1/8
Q:1/4=55
M:4/4
K:F
V:1 treble nm="Violin" snm="Vln."
V:2 treble 
V:3 treble 
V:4 treble 
V:1
"^Allemanda" D/ | D>E F/G/A/B/ ^C/(B/A/G/) e>G | %2
 (F/^C/)(D/A,/) (B,/D/)(F/G/) C/A,/C/E/ (3(A/G/F/) (3(G/F/E/) | %3
 F/D/F/A/ (3(B/A/G/) (3(A/G/F/) E/G/B/d/ (3(c/B/A/) (3(B/A/G/) | %4
 A/F/A/c/ (f/g/a/)c/ d/A/B/d/ (g/a/b/)d/ | e/B/c/G/ (A/B/c/)E/ F/A,/B,/G/ C/E/G/B/ | %6
 (A/G/F/)A/ d/F/E/D/ ^C/e/f/g/ A/g/f/e/ | (f/e/d/)E/ D/=C/=B,/A,/ ^G,/=B/c/d/ E/d/c/B/ | %8
 (c/=B/A/)B/ (c/f/4e/4d/)c/ (B/A/G/)A/ (B/e/4d/4c/)B/ | %9
 (A/G/F/G/4A/4 D/)c/=B/A/ (^G/^F/E/F/ G/A/B/c/ | d/e/f/e/ d/c/=B/A/) (^g/a/=b/a/ g/^f/e/d/) | %11
 (c/d/4e/4=f/)a/ (=B/c/4d/4e/)=g/ (A/B/4c/4d/)f/ (G/A/4B/4c/)e/ | %12
 (F/G/4A/4=B/)d/ (E/^F/4^G/4A/)c/ (D/^C/D/)=F/ _B/=c/d/B/ | %13
 (F/E/F/)B/ d/e/f/d/ (B/A/B/)d/ (f/g/4a/4b/)a/ | %14
 ^g/(=b/4a/4g/)(f/4e/4 d/)(f/4e/4d/)(=B/4A/4 ^G/)(B/e/)g/ b/e/(d'/c'/4b/4) | %15
 (c'/=b/4a/4^g/)a/ (3(c/d/e/) (3(d/c/=B/) A>B ^c/d/e/=G/ | (F/D/F/A/ d/f/^g/)D/ a3 z/ :: e/ | %18
 e>f e/d/^c/=B/ (A/G/4A/4_B/)A/ G/F/E/F/ | (G/F/)(E/D/) f/A/B/D/ (C/G/B/)_e/ A/=c/f/e/ | %20
 (d/A/B/)d/ _E/G/A/=B/ c/d/_e/c/ (3(a/g/^f/) (3(g/f/=e/) | %21
 (^f/c/4d/4_e/)d/ (c/_B/4A/4d/)c/ (B/c/4d/4e/)g/ (A/B/4c/4d/)=f/ | %22
 (G/A/4B/4c/)_e/ (F/G/4A/4B/)d/ _E/(g/4f/4e/)(c/4B/4 A/)(c/4B/4A/)(^F/4=E/4 | %23
 D/)(^F/A/)c/ (3(_e/d/c/) (3(^f/=e/d/) (b/a/4g/4f/)g/ (3(B/c/d/) (3(c/B/A/) | %24
 G>A B/c/d/=F/ E/C/E/G/ (B/e/4f/4g/)B/ | A/F/A/c/ f/A/G/F/ C/G/c/d/ e/B/A/G/ | %26
 F/D/F/A/ d/F/E/D/ A,/E/A/B/ c/G/F/_E/ | D/B,/D/F/ B/A/G/F/ (e/f/4g/4f/)e/ d/c/B/g/ | %28
 (A/4G/4F/4E/4F/)B,/ C/E/G/A/ (B/A/)(G/F/) a/e/f/d/ | (=B/d/f/)a/ g/e/^c/g/ (D/A/c/)g/ f/c/d/_B/ | %30
 (G/B/d/)f/ _e/=c/A/e/ (B,/F/A/)e/ d/A/B/G/ | (E/G/B/)d/ c/A/^F/c/ B/A/G/=F/ _E/D/E/G/ | %32
 (B/A/B/)_e/ (g/^f/g/)b/ (^c/A/4=B/4c/)=e/ G/(_B/4A/4G/)(=F/4E/4 | %33
 F/)(A/4G/4F/)(E/4D/4 A,/)E/d/^c/ d3 z/ :|[M:3/4][Q:1/4=120]"^Corrente" A/ | A2 (3(^CBA) (3(GFE) | %36
 F2 (3(A,GF) (3(ED^C) | D>B, G,>F E>D | ^C>A, C>E A>G | (3F(DE (3FGA (3Bcd) | c>A F>C A,>_E | %41
 (3D(B,C (3D=EF (3GAB) | (3A(FG (3ABc (3d_ec) | (3d(Bc (3d=ef (3gab) | E>c g>b a>g | %45
 (3(agf) (3(efg) (3(cde) | (3(fcB) (3(ABc) (3(FGA) | D>^F A>c B>A | (3B(dc (3BAG (3=FED) | %49
 ^C>E A>g f>e | (3f(AG (3FED (3=C=B,A, | (3^G,)de (3(fed) (3(cd=B) | (3A,cd (3(edc) (3(=BcA) | %53
 (3^GDE (3(FED) (3(CD=B,) | (3(CEA) (3(cea) (3(=b^ga) | (3(f^cd) (3(_B^GA) (3(F^CD) | %56
 (3^G,=ba (3^g(=fe (3dc=B) | (3c(ed (3c=BA) (3(EA^G) | A,4- A,3/2 :: e/ | e2 (3(^Gfe) (3(d^c=B) | %61
 (3(^cAE) (3A,(_BA (3GFE) | F>d E>g f>e | f>d A>F D>F | (3A,_ed (3(cBA) (3(gfe) | d>B F>D B,>d | %66
 (3^Fc'b (3(ag^f (3_edc) | (3B(GA (3Bcd) (3(_ede) | (3A(FG (3ABc) (3(dcd) | _E>d g>B c>_e | %70
 (3^F(AG (3F_ED (3CB,A,) | (3(B,DG) (3(Bdg) (3(dg^f) | (3g(dc (3BAG (3=FED) | E>G B>d c>B | %74
 (3A(FG (3A=B^c (3def) | (3g(ag (3fed (3^c=BA) | (3f(gf (3ed=c (3_BAG) | (3e(fe (3dcB) (3(Ac_e) | %78
 (3d(_ed (3cBA) (3(^Gd=b) | T^c2 (3A,(A=B (3cde) | (3(G^FG) (3^C(GA (3_BAG) | %81
 (3(=FGA) (3D(de (3fga) | (3(c=Bc) (3^F(cd (3_edc) | (3(B^FG) (3(_e^cd) (3(b^fg) | %84
 ^c'2- (3c'(d'c') (3(d'=c'_b) | (3(agf) (3(efd) (3(Ad^c) | d>B ^G2- (3GA=B | (3(^CE=G) _B2- (3BAG | %88
 (3(FA^c) (3(dfa) (3A,D^C | D4- D3/2 :|[M:3/4][Q:1/4=50]"^Sarabanda" f2 B3 B | e2 A3 A | AB BA Ad | %93
 (d/c/)(B/A/) (G2 T^F/>)(D/=E/4F/4G/4A/4) | B(d/c/ B/A/G/=F/ E/D/^C/D/) | (G,/E/^c/b/) a3 c | %96
 dA g2 g/(f/e/f/) | e6 :| (e3/2f/4g/4) T^c3 c |: d/(=c/=B/c/) B>(d e/g/f/a/4g/4) | g2 fe fg | %101
 ed/c/ b2- b/(_a/^f/g/) | T^f2 (gd) (_eB) | c(d/_e/) ^Fd (c/B/A/G/) | %104
 (c/_e/)(b/a/) (B/d/)(a/g/) A/(c/g/^f/) | g2 G,2- G,/(G/4A/4B/4c/4d/4F/4) | %106
 b>a (g/f/e/d/4c/4) TB>A | (Ac/=B/) (Bc) D>c | (=Bd/^c/) (cd) E/>(f/e/f/4d/4) | %109
 (d/^c/e/)A/ (A/=G/_B/)D/ (D/^C/E/)A,/ | e2 f4 | G,/(B/_e/g/ e/B/G/_E/) b/(^c/4d/4=e/)G/ | %112
 (F/A/d/)(a/ g/)(^c/d/)f/ (A/d/e/)c/ |1 d>(=c B/A/G/F/ E/D/^C/D/4E/4) | (e3/2f/4g/4) T^c3 c :|2 %115
 d/D/F/A/ (G/F/E/D/ C/B,/)(C/A,/) || B,/(d/c/A/) (B/^F/G/)B/ (d/=f/e/)^c/ | %117
 d/(=B,/D/=F/ ^G/=B/d/)(e/ f/)(^c/d/)(G/ | A/)(_B/4A/4=G/F/) (E/D/4^C/4D/)^G,/ (A,/E/=G/)^c/ | %119
 d2 D4 |][M:12/8][Q:1/4=120]"^Giga" A | (DF)A (de)f e(g/f/e/d/) (^cA)E | %122
 (^CE)A (ef)g f(a/g/f/e/) (dA)F | Df/e/d/f/ b/a/g/f/e/d/ c/d/e/d/c/e/ a/g/f/e/d/c/ | %124
 B/c/d/c/B/d/ g/f/e/d/^c/=B/ A/B/c/B/A/c/ e/d/c/B/A/G/ | %125
 F/(A/G/F/E/D/) A,d^c D>EF/G/ A/_B/=c/d/e/f/ | %126
 g/e/c/G/E/G/ c/G/E/C/E/G/ A/G/F/G/A/B/ c/d/e/f/g/a/ | %127
 (b/a/b/)d'/e/g/ (a/g/a/)c'/d/f/ (g/f/g/)b/c/e/ (f/e/f/)a/g/f/ | %128
 e/d/e/f/e/d/ c/B/c/d/c/B/ (A/B/c/)f/c/A/ (F/G/A/)c/A/F/ | %129
 (D/_E/F/)B/F/D/ (B,/C/D/)F/D/B,/ G,/B,/D/G/B/d/ g/b/g/d/B/G/ | %130
 (=E/G/c/)e/g/b/ (c/B/c/)b/c/b/ (F/A/c/)e/f/a/ (c/B/c/)a/c/a/ | %131
!p! (E/G/c/)e/g/b/ (c/B/c/)b/c/b/ (F/A/c/)e/f/a/ (c/B/c/)a/c/a/ | %132
!f! (B/d/f/)a/b/d'/ (e/d/e/)d'/e/d'/ (A/c/e/)g/a/c'/ (d/c/d/)c'/d/c'/ | %133
 (G/B/d/)f/g/b/ (c/B/c/)b/c/b/ (F/A/c/)e/f/a/ (c/B/c/)a/f/d/ | %134
 B/A/B/c/d/B/ G/F/G/A/B/G/ E/D/E/F/G/E/ C/E/G/c/e- | %135
 e/(B/A/G/F/E/ D/^C/=B,/A,/)G/E/ F/D/F/A/d/^c/ d/A/d/f/=b/a/ | %136
 =b/(f/e/d/=c/=B/ A/^G/^F/E/)d/B/ c/A/c/e/a/^g/ (a/b/c'/)g/a/c'/ | %137
 (f/=g/a/)e/f/a/ (d/e/f/)^c/d/f/ ^G>A=B/=c/ (d/e/f/)d/=b/d/ | %138
 (c/d/e/)c/a/c/ (=B/c/d/)B/^g/B/ (c/d/e/)c/a/c/ (d/e/f/)d/=b/d/ | %139
 (c/d/e/)=B/c/A/ (B/c/d/)A/B/^G/ A/A,/^C/E/=G- G/E/C/A,/C/E/ | %140
 F/D/F/A/d/^c/ d/A/d/f/a/^g/ a/e/c/A/E/^C/ A,2 :: e | (A^c)e (GA)B ^C(E/D/C/=B,/) (A,C)E | %143
 G/A/B/A/G/B/ e/d/^c/=B/A/G/ F/E/F/G/A/F/ D>d=c/_B/ | %144
 A/(c/B/A/G/^F/) _e/d/c/B/A/G/ F/(A/G/F/=E/D/) a/g/^f/=e/d/c/ | %145
 B/(d/c/B/A/G/) c'/b/a/g/^f/e/ (d/e/f/)a/g/=f/ _e/d/c/B/A/G/ | %146
 (^F/A/d/)^f/a/c'/ (d/c/d/)c'/d/c'/ (G/B/d/)f/g/b/ (d/c/d/)b/d/b/ | %147
!p! (^F/A/d/)^f/a/c'/ (d/c/d/)c'/d/c'/ (G/B/d/)f/g/b/ (d/c/d/)b/d/b/ | %148
!f! (C/_E/G/)B/c/_e/ (=F/E/F/)e/F/e/ (B,/D/F/)A/B/d/ (E/D/E/)d/E/d/ | %149
 (A,/C/_E/)G/A/c/ (D/C/D/)c/D/c/ (G,/B,/D/)^F/G/B/ (D/F/G/)B/d/g/ | %150
 _e/d/e/f/g/e/ c/B/c/d/e/c/ A/G/A/B/c/A/ ^F/A/d/^f/a/c'/ | %151
 (b/a/)(c'/b/a/g/) d/g/^f/g/a/f/ g/(_e/d/c/B/A/) B/G/A/B/c/d/ | %152
 (=e/=f/g/)e/B/e/ (C/E/G/)B/A/G/ (A/B/c/)A/F/A/ (B,/D/F/)A/F/D/ | %153
 (^c/d/e/)c/G/c/ (A,/^C/E/)G/F/E/ F/D/F/A/d/c/ d/A/d/f/a/=c/ | %154
 B/(a/g/f/e/d/) c/d/e/f/g/B/ A/(g/f/e/d/c/) B/c/d/e/f/A/ | %155
 G/(f/e/d/^c/=B/) A/B/c/d/e/G/ F/A/d/A/F/A/ D/F/A/F/D/F/ | %156
 (B,/F/d/)f/e/^c/ (A,/F/d/)f/e/c/ (G,/F/d/)f/e/d/ b/(a/g/f/e/d/) | %157
 ^c/e/f/g/a/e/ (d/c/=B/A/)(e/G/) (F/G/A/)F/d/F/ (E/F/G/)E/=c/E/ | %158
 (D/E/F/)D/_B/D/ (C/D/E/)C/A/C/ (B,/C/D/)B,/G/D/ (G/A/B/)G/_e/G/ | %159
 (A,/=B,/^C/)A,/G/A,/ (G/A/_B/)G/^c/G/ (F/G/A/)F/d/A/ d/e/f/d/=b/d/ | %160
 ^G/A/=B/^c/d/e/ (f/e/d/c/d/)G/ A/c/d/e/f/=g/ a/_b/(e/f/g/)c/ | %161
 d/D/F/A/d/e/ f/d/f/a/d'/^c'/ d'/a/f/d/A/F/ D2 :|[M:3/4][Q:1/4=60]"^Ciaccona" A3 A | e2 e3 e | %164
 f2 d3 =c | B2 A2 G/(F/E/F/) | G/(E/F/D/) A3 A | e2 e3 e | f2 d3 d | b2 a3/2g/4f/4 g>e | %170
 f3/2 x/ F3/2G/4A/4 B>A | e x e x x2 | e z d>f e>d | d z ^c z z z/ a/ | f x x4 | e x e x x2 | %176
 e z d>f e>^c | d>e (d2 ^c>)d | d>e f3/2g/4a/4 b>f | e>b a>g a>^f | g>f e3/2d/4^c/4 d>e | %181
 f>g e>f g>e | f3/2d/4e/4 f3/2g/4a/4 b>f | e>b a>g a>^f | g>=f e3/2d/4^c/4 d>e | %185
 f>g d3/2^c/4=B/4 c>=G | Ffed^cd | G(A/B/) ^CBAG | F(G/A/) B,D G(d/^c/) | dF (E/F/G/)B/ A/G/F/E/ | %190
 (F/A/d/)f/ (f/e/g/f/ e/d/^c/)d/ | G/B/^F/G/ (^C/E/G/)B/ A/G/e/G/ | %192
 =F/^C/D/A,/ (B,/D/G/)A/ B/_e/^c/d/ | (^G/=B/d/)f/ =e/=g/^c/d/ (A,/E/d/)c/ | dfba^gD | ^Cea=g^f=C | %196
 =B,dg=fe_B, | A,/f/e/d/ ^cAeG | F/D/F/A/ (d/f/b/)a/ ^g/=b/g/e/ | %199
 (^c/e/a/)=g/ ^f/a/f/=c/ A/^F/D/C/ | (=B,/D/G/)^F/ G/(_e/d/^c/) (_b/a/^g/)a/ | %201
 f/=e/d/=c/ (B/A/^G/)A/ ^C/=G/F/E/ | F/D/E/F/ G/A/=B/^c/ d/F/E/D/ | %203
 (A,/E/d/)^c/ (D/^F/A/)=c/ c/_B/c/A/ | B/G/=F/_E/ D/C/B,/A,/ (G,/G/_e/)d/ | %205
 ^c/=e/A/G/ F/d/E/D/ (A,/E/d/)c/ | (g/e/f/)^c/ (d/=c/B/A/ G/F/E/D/) | %207
 ^C/B/A/G/ ^F/D/A/D/ =C/B,/C/A,/ | (B,/G,/A,/B,/ C/D/E/^F/ G/A/B/)A/ | %209
 ^G/A/E/=F/ =G/(^C/D/)(^G,/ A,/)F/E/C/ | D/d/(A/G/ F/E/D/C/ B,/)d/G/F/ | %211
 E/c/(G/F/ E/D/C/B,/ A,/)c/F/_E/ | D/B/(F/_E/ D/C/B,/A,/ G,/)B/=E/D/ | %213
 ^C/A,/C/E/ A/E/A/^c/ e/G/A/E/ | F/D/F/A/ d/A/d/f/ B/(g/a/b/) | e/C/E/G/ c/G/c/e/ A/(f/g/a/) | %216
 d/B,/D/F/ B/F/B/d/ G/(e/f/g/) | ^c/A/c/e/ a/e/a/^c'/ e'/g/f/e/ | f x x f g x | e x x e f x | %220
 d x x d e x | Ad (d/^c/)(d/=B/) (a/g/)(a/e/) | f z d z x2 | e z c z x2 | d z B z x2 | %225
 A,/G/^c/g/ A,/F/d/f/ A,/G/c/e/ | (d/A/4G/4F/)E/ D/C/B,/A,/ B,/(d/4=c/4B/4A/4G/4F/4) | %227
 (E/G/4F/4E/)D/ C/B,/A,/G,/ A,/(c/4B/4A/4G/4F/4_E/4) | %228
 (D/F/4_E/4D/)C/ B,/D/4C/4B,/A,/ G,/(B/4A/4G/4F/4=E/4D/4) | %229
 (^C/4=B,/4A,/4B,/4C/4D/4E/4F/4) (G/4A/4_B/4A/4G/4F/4E/4D/4) C/(e/4d/4^c/4=B/4A/4G/4) | %230
 (F/D/4E/4F/)A/ F/D/F/A/ (B/4=c/4d/4e/4f/4g/4a/4b/4 | %231
 e/)(C/4D/4E/G/) E/C/E/G/ (A/4B/4c/4d/4e/4f/4g/4a/4 | %232
 d/)(B,/4C/4D/)F/ D/B,/D/F/ (G/4A/4B/4c/4d/4e/4f/4g/4) | %233
 (^c/4b/4a/4g/4f/4e/4d/4=c/4) (B/4A/4G/4F/4E/4D/4^C/4=B,/4) (A,/4B,/4C/4D/4E/4F/4G/4E/4) | %234
 F/4D/4E/4F/4G/4A/4=B/4^c/4 d/4B/4c/4d/4e/4f/4g/4a/4 _b/D/T=C/B,/ | %235
 C/4D/4E/4^F/4G/4A/4_B/4=c/4 d/4A/4B/4c/4d/4e/4^f/4g/4 a/C/TB,/A,/ | %236
 B,/4D/4E/4^F/4G/4A/4B/4c/4 d/4G/4A/4B/4c/4d/4e/4^f/4 g/4a/4b/4a/4g/4=f/4e/4d/4 | %237
 ^c/4a/4g/4f/4e/4d/4c/4=B/4 A/4B/4c/4d/4e/4f/4g/4a/4 _b/4g/4e/4c/4A/4G/4F/4E/4 | %238
 D/A/d/e/ f/d/_B/A/ (^G/=B/d/)f/ | C/E/A/c/ e/c/A/=G/ (^F/A/c/)_e/ | %240
 B,/D/G/B/ d/B/G/=F/ (=E/G/B/)^c/ | A,/D/F/A/ d/A/F/D/ A,/E/G/^c/ | %242
 (D/b/)(b/^g/) (g/=f/)(f/d/) d/=B/^G/E/ | (^C/a/)(a/^f/) (f/_e/)(e/=c/) c/A/^F/D/ | %244
 (=B,/g/)(g/_e/) (e/^c/)(c/_B/) B/G/=E/^C/ | (A,/^C/)(C/E/) (E/G/4F/4)(G/B/4A/4) (B/^c/4d/4=e/)G/ | %246
 (F/4A/4=B/4^c/4) (d/4c/4B/4A/4) (f/4e/4d/4c/4) (d/4e/4f/4g/4) (a/4g/4f/4e/4) (_b/4a/4g/4f/4) | %247
 (=c/4e/4^f/4g/4) (a/4g/4f/4e/4) (c'/4=b/4a/4g/4) (a/4b/4c'/4d'/4) (e'/4d'/4c'/4b/4) (=f'/4e'/4d'/4^c'/4) | %248
 (d'/4e'/4f'/4e'/4) (d'/4f'/4e'/4d'/4) (f'/4e'/4d'/4f'/4) (e'/4d'/4f'/4e'/4) (d'/4g'/4f'/4e'/4d'/4=c'/4_b/4a/4) | %249
 (g/4a/4b/4a/4) (g/4b/4a/4g/4) (b/4a/4g/4b/4) (a/4g/4b/4a/4) (g/4f/4e/4d/4^c/4=B/4A/4G/4) | %250
"^arpeggio" a6 | g4 g2 | f4 f2 | efedd^c | d6 | _e6 | d6 | d4 ^c2 | d2 A2 B2 | c2 B2 A2 | %260
 B2 b2 a2 | gf e4 | f6 | ^f6 | g2 =f2 e2 | f2 ^c4 | d2 f2 f2 | f2 e2 _e2 | z2 b2 =e2 | e2 a2 g2 | %270
 f2 ^f4 | g2 ^g4 | a2 c'2 =b2 | d'2 d'2 ^c'2 | d'6 | d'2 ^c'4 | =c'2 =b4 | _b2 a2 g2 | ^f2 =f2 f2 | %279
 e2 _e2 e2 | d2 d2 d2 | d2 d2 ^c2 | D(f/4e/4d/4e/4 d/4=c/4d/4c/4B/4c/4B/4A/4 B/4c/4d/4e/4f/)D/ | %283
 C(e/4d/4c/4d/4 c/4B/4c/4B/4A/4B/4A/4G/4 A/4B/4c/4d/4_e/)C/ | %284
 B,(d/4c/4B/4c/4 B/4A/4B/4A/4G/4A/4G/4F/4 G/4A/4B/4c/4d/)B,/ | %285
 (A,/4A/4=B/4^c/4d/)A,/ (G,/4A/4B/4c/4d/)G,/ (A,/4d/4c/4B/4c/)G/ | (F/E/D/^C/ D/)F/G/A/ _B/A/B/G/ | %287
 e2 e3 e | f2 d3 d | b2 a2 g2 | g2 ^f2 C=f | f2 e2 _B,_e | _e2 d2 A,d | ^G,d ^c3 d || %294
[K:D] d2 F3 G | E2 (F3 G/A/) | D2 (E3 F/G/) | FE E3 A | F2 BAGF | E2 (F/G/A/G/ F)E | D2 EG/F/ ED | %301
 cd E3 A | FEDEF^G | ABcdBc | dfedcB | ABcdec | d2 f3 f | e2 a3 g | fe gf ba | gf e4 | %310
 d/c/B/A/ (^G/B/d/)f/ ee | e z z2 Fe | d z z2 Ed | c/B/A/B/ (c/e/g/)b/ a/g/f/e/ | %314
 f/a/f/d/ A/d/A/F/ D/F/E/D/ | C/a/e/c/ A/c/A/E/ C/E/D/C/ | B,/^g/d/B/ ^G/B/G/E/ B,/D/C/B,/ | %317
 A,/B,/C/D/ E/C/A,/C/ E/=G/F/E/ | F/D/A,/D/ F/D/A/F/ d/A/f/d/ | a/e/c/e/ a/e/c'/a/ e'/c'/f'/c'/ | %320
 d'/f'/d'/b/ f/b/d/f/ B/d/c/B/ | c/e/c/A/ E/A/C/E/ A,/C/E/G/ | F/D/a/a/ a/f/d/A/ F/D/A,/D/ | %323
 E/C/a/a/ a/e/c/A/ E/C/A,/C/ | D/B,/a/a/ a/f/d/B/ d/^g/b/g/ | a/e/a/a/ a/c/e/e/ e/A/c/G/ | %326
 F/D/A/A/ A/F/D/F/ A/d/f/B,/ | C/E/A/A/ A/E/C/E/ A/c/e/A,/ | B,/D/A/A/ A/D/B,/D/ ^G/B/d/E/ | %329
 A,/E/A/A/ A/E/A/c/ e/c/A/=G/ | F/A,/A,/A,/ z/ a/a/f/ f/d/d/f/ | e/ z/ z z/ a/a/e/ e/c/c/e/ | %332
 d/ z/ z z/ b/b/^g/ g/e/e/g/ | a/ z/ z z/ a/a/a/ a/=g/g/g/ | f/ z/ z x4 | %335
 d/ D/D/D/ D/ d'/d'/d'/ d'/=c'/c'/c'/ | b/ z/ z z/ b/b/b/ c'/d'/d'/d'/ | %337
 g/g/g/g/ f/f/f/f/ e/e/e/e/ | f2 f3 f | (fe) e3 e | (ed) =c3 c | =cB z bag | f2 f3 f | e2 e3 e | %344
 af bagf | ed ^c3 d | d2 A3 A | A2 A3 A | B2 B3 B | cd d3 c | d2 f3 f | f2 f3 f | f2 e3 e | %353
 ed d3 c | d2 f3 f | g2 a3 a | b2 b3 b | c'd' d'2 c'2 | d'2 d'3 d' | c'2 =c'3 c' | b2 e3 e | %361
 ef gbag | f2"^arpeggio" f2 f2 | f2 f2 f2 | e2 a2 c2 | b2 ef g2 | g2 f2 f2 | f2 e2 e2 | e2 e2 e2 | %369
 db c3 d ||[K:F] d2 B3 B | B>e (B/G/A/)E/ CA | A>d (A/^F/G/)D/ B,G | G>e (^c/A/_B/)G/ ^CA | %374
 F>D F/A/d/^c/ (d/e/f/)A/ | f>D G/B/_e/d/ (e/=c/F/)A,/ | _e>^c d/A/B/^F/ (G/D/_E/)G/ | %377
 ^cd d>=B (c/e/g/)A/ | (D/A/^c/)g/ (f/d/c/d/) (D/d/c/d/) | (E/G/^c/)a/ (g/d/c/d/) (E/d/c/d/) | %380
 (F/A/^c/)b/ (a/d/c/d/) (F/d/c/d/) | (G/B/d/)b/ (e/d/^c/d/) A/d/c/e/ | %382
 f/d/(A/G/ F/)A/(D/C/ =B,/)G/d/f/ | e/c/(G/F/ E/)G/(C/_B,/ A,/)F/c/_e/ | %384
 d/B/(F/_E/ D/)F/(B,/A,/ G,/)^C/=E/B/ | (A/F/D/)B/ G/E/^C/E/ A,/G/F/E/ | %386
 D/A/=B/^c/ d/f/g/a/ _b/(G/4F/4E/4F/4G/) | C/G/A/B/ c/e/f/g/ a/(F/4E/4D/4E/4F/) | %388
 B,/(d'/4c'/4b/4c'/4d'/) g/(b/4a/4g/4a/4b/) e/(g/4f/4e/4f/4g/) | %389
 ^c/(e/4d/4c/4d/4e/4c/4) G/(B/4A/4G/4A/4B/4G/4) (E/4D/4^C/4D/4E/4F/4G/4E/4) | %390
 (F/A/) x/ A/ x/ A/x/A/ x/ A/x/A/ | (E/A/) x/ A/ x/ A/x/A/ x/ A/x/A/ | %392
 (D/A/) x/ A/ x/ A/x/A/ x/ A/x/A/ | (E/A/) x/ A/ x/ A/x/A/ x/ A/x/A/ | %394
 (F/A/) x/ A/ x/ A/x/A/ x/ A/x/A/ | (E/A/) x/ A/ x/ A/x/A/ x/ A/x/A/ | %396
 (D/A/) x/ A/ x/ A/x/A/ x/ A/x/A/ | x/ A/x/A/ x/ A/x/A/ x/ A/x/A/ | x/ A/x/A/ x/ A/x/A/ x/ A/x/A/ | %399
 x/ A/x/A/ x/ A/x/A/ x/ A/x/A/ | x/ A/x/A/ x/ A/x/A/ x/ A/x/A/ | x/ A/x/A/ x/ A/x/A/ x/ A/x/A/ | %402
 (F/A/) (3(D/F/A/) (3(F/A/d/) (3(A/d/f/) (3(B/d/g/) (3(G/d/b/) | %403
 (3(E/c/b/) (3(C/E/G/) (3(E/G/c/) (3(G/c/e/) (3(A/c/f/) (3(F/c/a/) | %404
 (3(D/B/a/) (3(B,/D/F/) (3(D/F/B/) (3(F/B/d/) (3(G/B/_e/) (3(_E/B/g/) | %405
 (3(=E/^c/b/) (3(F/d/a/) (3(G/e/g/) (3(^G/d/f/) (3(A/d/e/) (3(A/c/e/) | %406
 (3D/(a/g/ (3f/)(f/e/ (3d/)(d/=c/ (3B/)(B/A/ (3G/)(B/c/ (3d/e/f/) | %407
 (3C/(g/f/ (3e/)(e/d/ (3c/)(c/B/ (3A/)(A/G/ (3F/)(A/B/ (3c/d/_e/) | %408
 (3B,/(f/_e/ (3d/)(d/c/ (3B/)(B/A/ (3G/)(G/F/ (3=E/)(E/D/ (3^C/)(C/=B,/ | %409
 A,/)(=B,/4^C/4D/4E/4F/4G/4 A/4=B/4^c/4d/4e/4f/4g/4f/4 e/4d/4c/4B/4A/4G/4F/4E/4 | D) z A3 A | %411
 e2 e3 e | f2 d3 =c | B2 A2 G/(F/E/F/) | G/(E/F/D/) B2 A2 | d2 c2 B2 | (^C/E/G/B/ A/G/e/G/) F2- | %417
 FE E3 D | D6 |] %419
V:2
 x/ | D3/2 x/ x2 x4 | x8 | x8 | x8 | x8 | x8 | x8 | x8 | x8 | x8 | x8 | x8 | x8 | x8 | x8 | %16
 x4 A,3 x/ :: x/ | e3/2 x/ x2 x4 | x8 | x8 | x8 | x8 | x8 | x8 | x8 | x8 | x8 | x8 | x8 | x8 | x8 | %32
 x8 | x4 D3 x/ :|[M:3/4] x/ | D2 x4 | D2 x4 | x6 | x6 | x6 | x6 | x6 | x6 | x6 | x6 | x6 | x6 | %47
 x6 | x6 | x6 | x6 | x6 | x6 | x6 | x6 | x6 | x6 | x6 | x11/2 :: x/ | A2 x4 | x6 | x6 | x6 | x6 | %65
 x6 | x6 | x6 | x6 | x6 | x6 | x6 | x6 | x6 | x6 | x6 | x6 | x6 | x6 | A2 x2 x2 | x6 | x6 | x6 | %83
 x6 | A2 x4 | x6 | x6 | x6 | x6 | x11/2 :|[M:3/4] D2 G3 x | ^C2 G3 x | D2 =C2 B,2 | _E x A,4 | %94
 G, x x4 | x2 x2 x G | F2 E2 D2 | A6 :| A2 G4 |: ^F x =F x x2 | E2 D2 G2 | C x x4 | c2 B z G z | %103
 G2 x4 | x2 x2 D x | x6 | E3/2 x/ x4 | F x ^F x x2 | G x ^G x x2 | x6 | B,2 A,4 | x6 | x6 |1 x6 | %114
 A,2 G4 :|2 x6 || x6 | x6 | x6 | x6 |][M:12/8] x | x12 | x12 | x12 | x12 | x12 | x12 | x12 | x12 | %129
 x12 | x12 | x12 | x12 | x12 | x12 | x12 | x12 | x12 | x12 | x12 | x11 :: x | x12 | x12 | x12 | %145
 x12 | x12 | x12 | x12 | x12 | x12 | x12 | x12 | x12 | x12 | x12 | x12 | x12 | x12 | x12 | x12 | %161
 x11 :|[M:3/4] D4 | D2 ^C4 | D2 B,4 | G,2 A,2 ^C2 | D x D4 | D2 ^C4 | D2 B,4 | G,2 A,3/2 x/ x2 | %170
 D>E x4 | D x ^C x x2 | D z B, z z z/ G,/ | A, z z2 z z/ A,/ | D3/2 x/ x4 | D x ^C x x2 | %176
 D z B, z z z/ B,/ | A,>G, A,4 | D x x2 z z/ d/ | ^c2 =c2 z z/ c/ | =B2 _B2 z z/ B/ | %181
 A>=B ^c>d e>c | d3/2 x/ x2 z z/ d/ | ^c2 =c2 z z/ c/ | =B2 _B2 z z/ ^G/ | A2 A2 z z/ A,/ | %186
 D x x4 | D x x4 | D x x4 | x G, A, x x2 | D/ x/ x x4 | x6 | x6 | x6 | x6 | x6 | x6 | x6 | x6 | %199
 x6 | x6 | x6 | x6 | x6 | x6 | x6 | x6 | x6 | x6 | x6 | x6 | x6 | x6 | x6 | x6 | x6 | x6 | x6 | %218
 dADd (B/A/B/)G/ | cGCc (A/G/A/)F/ | BFB,B (G/F/)(G/E/) | (F/E/)(F/D/) A, x ^c x | %222
 (d/^c/d/)A/ (F/E/F/)D/ B,/G/d/b/ | (c/=B/c/)G/ (E/D/E/)C/ A,/F/c/a/ | %224
 (F/_E/)(F/D/) (D/C/)(D/B,/) G,/=E/=B/g/ | x6 | D/ x/ x x2 x2 | C/ x/ x x2 x2 | B,/ x/ x x2 x2 | %229
 x6 | x6 | x6 | x6 | x6 | x6 | x6 | x6 | x6 | x6 | x6 | x6 | x6 | x6 | x6 | x6 | x6 | x6 | x6 | %248
 x6 | x6 | F6 | D4 E2 | D4 D2 | G,4 A,2 | D2 A,2 B,2 | C2 B,2 A,2 | B,2 A,2 G,2 | A,6 | D6 | D6 | %260
 D2 E2 =F2 | G2 A4 | D6 | D6 | D4 ^C2 | D2 A,4 | D2 D2 D2 | G,4 A,2 | B,4 B,2 | A,2 A,4 | D2 D4 | %271
 D2 D2 E2 | F2 ^F2 G2 | ^G2 A4 | D2 B2 A2 | ^G2 A2 =G2 | ^F2 G2 =F2 | E2 F2 E2 | D2 A,2 =B,2 | %279
 C2 G,2 A,2 | B,2 B,2 A,2 | ^G,2 A,4 | x6 | x6 | x6 | x6 | x6 | D2 ^C4 | D2 B,4 | G,2 A,2 A,2 | %290
 D2 D2 x2 | =B,2 C2 x2 | A,2 B,2 x2 | x2 A,4 ||[K:D] D2 D4 | C2 A,4 | B,2 G,4 | A,2 C4 | D2 D3 D | %299
 CB, A,3 A, | B,A, G,3 G, | A,2 A,4 | D2 D3 D | C2 A,3 A, | B,2 G,3 G, | A,2 A,3 A, | D x DEFG | %307
 ABcABc | dc BA GF | ED A4 | D z z2 z D | C/D/C/B,/ (A,/C/E/)=G/ z ^A, | %312
 B,/C/D/B,/ (G,/B,/D/)F/ z ^G, | A,/ x/ x x4 | x6 | x6 | x6 | x6 | x6 | x6 | x6 | x6 | x6 | x6 | %324
 x6 | x6 | x A/A/ A/ x/ x x2 | x A/A/ A/ x/ x x2 | x A/A/ A/ x/ x x2 | x A/A/ A/ x/ x x2 | %330
 x2 A,/ z/ z/ d/ d/A/A/d/ | z/ A,/A,/A,/ A,/ z/ z/ c/ c/A/A/c/ | %332
 z/ A,/A,/A,/ A,/ z/ z/ B/ B/d/d/d/ | z/ A,/A,/A,/ A,/ x/ x x2 | z/ D/D/D/ D/A/A/A/ A/G/G/G/ | %335
 F/ D/D/D/ D/ d/d/d/ e/f/f/f/ | z/ D/D/D/ D/ x/ x x2 | f/e/e/e/ e/d/d/d/ [Gd]/[Ac]/[Ac]/[Ac]/ | %338
 D2 d3 d | d2 (dcB)^A | B2 (B=AG)F | G2 z GFE | DFBAGF | GEAGFE | FD G, x x2 | z2 A,4 | A,2 D3 D | %347
 =C2 C4 | B,2 E4 | A,2 x4 | D2 D3 D | =C2 C3 C | B,2 ^C3 C | D2 A,2 x2 | FE D3 D | E2 F3 F | %356
 G2 ^G3 G | A2 A4 | D2 D3 D | A2 D3 D | G2 ^G3 G | A2 A,3 A, | D2 D2 C2 | B,2 B,2 A,2 | %364
 G,2 G,2 G,2 | ^G,2 A,2 A,2 | D2 D2 D2 | G,2 G,2 ^G,2 | A,2 A,2 ^A,2 | B,G, =A,4 ||[K:F] D2 D4 | %371
 C3/2 x/ x2 x C | B,3/2 x/ x2 x B, | A,3/2 x/ x2 x ^C | D3/2 x/ x4 | G,3/2 x/ x4 | B,3/2 x/ x4 | %377
 A,G, A,3/2 x/ x2 | x6 | x6 | x6 | x6 | x6 | x6 | x6 | x6 | x6 | x6 | x6 | x6 | %390
 D/x/A/ x/ B/x/A/ x/ G/x/F/ x/ | C/x/B/ x/ A/x/G/ x/ F/x/E/ x/ | B,/x/A/ x/ G/x/F/ x/ E/x/D/ x/ | %393
 A,/x/F/ x/ G/x/B/ x/ A/x/G/ x/ | D/x/A/ x/ ^G/x/=G/ x/ ^F/x/=F/ x/ | %395
 C/x/G/ x/ ^F/x/=F/ x/ E/x/_E/ x/ | B,/x/=E/ x/ F/x/^F/ x/ G/x/^G/ x/ | %397
 [A,A]/x/[=B,A]/ x/ [CA]/x/[^CA]/ x/ [D=B]/x/[E^c]/ x/ | %398
 [Fd]/x/[D=c]/ x/ [G_B]/x/[FB]/ x/ [EB]/x/[DB]/ x/ | %399
 [EB]/x/[CB]/ x/ [FA]/x/[EA]/ x/ [DA]/x/[CA]/ x/ | %400
 [DA]/x/[=B,A]/ x/ [EG]/x/[DG]/ x/ [^CG]/x/[B,G]/ x/ | %401
 [^CG]/x/[CE]/ x/ [CA]/x/[A,G]/ x/ [=B,F]/x/[CE]/ x/ | D/ x/ x x4 | x6 | x6 | x6 | x6 | x6 | x6 | %409
 x6 | x2 D4 | D2 ^C4 | D2 B,4 | G,2 A,2 ^C2 | D x D2 =C2 | B,2 A,2 G,2 | x2 x2 D2 | G,2 A,4 | D6 |] %419
V:3
 x/ | x8 | x8 | x8 | x8 | x8 | x8 | x8 | x8 | x8 | x8 | x8 | x8 | x8 | x8 | x8 | x4 ^c3 x/ :: x/ | %18
 x8 | x8 | x8 | x8 | x8 | x8 | x8 | x8 | x8 | x8 | x8 | x8 | x8 | x8 | x8 | x15/2 :|[M:3/4] x/ | %35
 F2 x4 | x6 | x6 | x6 | x6 | x6 | x6 | x6 | x6 | x6 | x6 | x6 | x6 | x6 | x6 | x6 | x6 | x6 | x6 | %54
 x6 | x6 | x6 | x6 | x11/2 :: x/ | ^c2 x4 | x6 | x6 | x6 | x6 | x6 | x6 | x6 | x6 | x6 | x6 | x6 | %72
 x6 | x6 | x6 | x6 | x6 | x6 | x6 | x6 | x6 | x6 | x6 | x6 | g2 x4 | x6 | x6 | x6 | x6 | x11/2 :| %90
[M:3/4] d2 x2 x2 | B2 x4 | F2 E2 D2 | x6 | D x x4 | x6 | x2 ^c2 d2 | x6 :| ^c2 x4 |: x6 | %100
 c2 c2 =B2 | c x x4 | x6 | x6 | x6 | x6 | c3/2 x/ x4 | x6 | x6 | x6 | ^c2 d4 | x6 | x6 |1 x6 | %114
 ^c2 x4 :|2 x6 || x6 | x6 | x6 | x6 |][M:12/8] x | x12 | x12 | x12 | x12 | x12 | x12 | x12 | x12 | %129
 x12 | x12 | x12 | x12 | x12 | x12 | x12 | x12 | x12 | x12 | x12 | x11 :: x | x12 | x12 | x12 | %145
 x12 | x12 | x12 | x12 | x12 | x12 | x12 | x12 | x12 | x12 | x12 | x12 | x12 | x12 | x12 | x12 | %161
 x11 :|[M:3/4] F4 | B2 A4 | A2 F4 | G2 F2 x2 | x2 F4 | B2 A4 | A2 F4 | d2 ^c3/2 x/ x2 | %170
 d3/2 x/ x4 | B x A x x2 | A x F>A G>F | E>D E>G F>E | d x x4 | B x A x x2 | A x x4 | F>G E4 | %178
 D x x4 | x6 | x6 | x6 | x6 | x6 | x2 x2 x x/ d/ | d2 e2 x2 | x6 | x6 | x6 | x6 | x6 | x6 | x6 | %193
 x6 | x6 | x6 | x6 | x6 | x6 | x6 | x6 | x6 | x6 | x6 | x6 | x6 | x6 | x6 | x6 | x6 | x6 | x6 | %212
 x6 | x6 | x6 | x6 | x6 | x6 | x6 | x6 | x6 | x2 E a x2 | x6 | x6 | x6 | x6 | x6 | x6 | x6 | x6 | %230
 x6 | x6 | x6 | x6 | x6 | x6 | x6 | x6 | x6 | x6 | x6 | x6 | x6 | x6 | x6 | x6 | x6 | x6 | x6 | %249
 x6 | D6 | E4 ^c2 | D4 A2 | BAGFEE | F6 | ^F6 | G2 =F2 =E2 | F2 E2 G2 | F6 | ^F6 | G2 ^c2 d2 | %261
 d2 d2 ^c2 | d2 A2 B2 | c2 B2 A2 | B2 A2 A2 | A2 E4 | F2 A2 =c2 | B4 F2 | _e2 d2 d2 | d2 ^c4 | %270
 A2 d2 =c2 | B2 =B2 d2 | c2 _e2 d2 | f2 e4 | f6 | e6 | d6 | ^c2 d2 c2 | d2 =c2 d2 | c2 x2 x2 | %280
 F2 G2 F2 | E2 E4 | x6 | x6 | x6 | x6 | x6 | B2 A4 | A2 F4 | d2 d2 ^c2 | d2 d2 x2 | d2 c2 x2 | %292
 F2 F2 x2 | x2 E4 ||[K:D] x6 | x6 | x6 | x6 | x2 F3 x | x6 | x6 | GF x3 x | x6 | E2 E3 =G | %304
 F2 G3 G | FDEFGE | FE d3 d | c x x3 x | x2 x2 dB | cd d2 c2 | x2 x2 x B | c z z2 x c | %312
 F x x2 x E | E/ x/ x x4 | x6 | x6 | x6 | x6 | x6 | x6 | x6 | x6 | x6 | x6 | x6 | x6 | x6 | x6 | %328
 x6 | x6 | x6 | c/ x/ x x/ x/ x x2 | ^G/ x/ x x4 | c/ z/ z z/ A/A/A/ B/B/c/c/ | %334
 d/ D/D/D/ D/A/A/A/ B/B/c/c/ | x6 | g/ D/D/D/ D/ g/g/g/ g/f/f/f/ | x2 z/ F/F/F/ x2 | d2 x4 | x6 | %340
 x6 | x2 ^cABc | d2 d3 d | d2 c3 c | x2 d=cBA | GF E4 | F2 F3 F | F2 F3 F | G2 G3 G | GFED E2 | %350
 x2 d3 d | A2 A3 A | d2 A3 A | A2 EF G2 | x2 d3 d | d2 d3 d | d2 e3 e | ef e4 | f2 f3 f | e2 f3 f | %360
 gd d3 d | d2 c3 c | d2 A2 A2 | B2 B2 B2 | B2 c2 x2 | d2 d2 c2 | d2 AB =c2 | B2 B^c d2 | d2 c2 c2 | %369
 FE E4 ||[K:F] x2 F4 | E3/2 x/ x2 x E | D3/2 x/ x4 | x4 x E | x6 | B3/2 x/ x4 | F3/2 x/ x4 | %377
 G=F =E3/2 x/ x2 | x6 | x6 | x6 | x6 | x6 | x6 | x6 | x6 | x6 | x6 | x6 | x6 | x6 | x6 | x6 | x6 | %394
 x6 | x6 | x6 | x6 | x6 | x6 | x6 | x6 | x6 | x6 | x6 | x6 | x6 | x6 | x6 | x6 | x2 F4 | B2 A4 | %412
 A2 F4 | G2 F2 x2 | x2 F2 ^F2 | G2 ^F2 G2 | x6 | x6 | x6 |] %419
V:4
 x/ | x8 | x8 | x8 | x8 | x8 | x8 | x8 | x8 | x8 | x8 | x8 | x8 | x8 | x8 | x8 | x4 E3 x/ :: x/ | %18
 x8 | x8 | x8 | x8 | x8 | x8 | x8 | x8 | x8 | x8 | x8 | x8 | x8 | x8 | x8 | x15/2 :|[M:3/4] x/ | %35
 x6 | x6 | x6 | x6 | x6 | x6 | x6 | x6 | x6 | x6 | x6 | x6 | x6 | x6 | x6 | x6 | x6 | x6 | x6 | %54
 x6 | x6 | x6 | x6 | x11/2 :: x/ | x6 | x6 | x6 | x6 | x6 | x6 | x6 | x6 | x6 | x6 | x6 | x6 | x6 | %73
 x6 | x6 | x6 | x6 | x6 | x6 | x6 | x6 | x6 | x6 | x6 | x6 | x6 | x6 | x6 | x6 | x11/2 :| %90
[M:3/4] A2 x2 x2 | G2 x4 | x6 | x6 | x6 | x6 | x6 | d2 ^c=B c2 :| x6 |: x6 | x6 | G x x4 | x6 | %103
 x6 | x6 | x6 | x6 | x6 | x6 | x6 | G2 A4 | x6 | x6 |1 x6 | A2 x4 :|2 x6 || x6 | x6 | x6 | x6 |] %120
[M:12/8] x | x12 | x12 | x12 | x12 | x12 | x12 | x12 | x12 | x12 | x12 | x12 | x12 | x12 | x12 | %135
 x12 | x12 | x12 | x12 | x12 | x11 :: x | x12 | x12 | x12 | x12 | x12 | x12 | x12 | x12 | x12 | %151
 x12 | x12 | x12 | x12 | x12 | x12 | x12 | x12 | x12 | x12 | x11 :|[M:3/4] x4 | G2 G4 | F2 x4 | %165
 x6 | x6 | G2 G4 | F2 x4 | E2 E3/2 x/ x2 | x6 | G>F G>B A>G | F>E x4 | x2 x2 x x/ ^c/ | %174
 D>E F3/2G/4A/4 B>A | G>F G>B A>G | F>E F>A G>E | x6 | x6 | x6 | x6 | x6 | x6 | x6 | x6 | x6 | x6 | %187
 x6 | x6 | x6 | x6 | x6 | x6 | x6 | x6 | x6 | x6 | x6 | x6 | x6 | x6 | x6 | x6 | x6 | x6 | x6 | %206
 x6 | x6 | x6 | x6 | x6 | x6 | x6 | x6 | x6 | x6 | x6 | x6 | x6 | x6 | x6 | x6 | x6 | x6 | x6 | %225
 x6 | x6 | x6 | x6 | x6 | x6 | x6 | x6 | x6 | x6 | x6 | x6 | x6 | x6 | x6 | x6 | x6 | x6 | x6 | %244
 x6 | x6 | x6 | x6 | x6 | x6 | %250
 (F/4D/4)(a/4D/4) (F/4D/4)(a/4D/4) (F/4D/4)(a/4D/4) (F/4D/4)(a/4D/4) (F/4D/4)(a/4D/4) (F/4D/4)(a/4D/4) | %251
 x6 | x6 | x6 | x6 | x6 | x6 | x6 | x6 | x6 | x6 | x6 | x6 | x6 | x2 x2 G2 | F2 x2 x2 | x2 D2 A2 | %267
 G4 x2 | F4 G2 | A2 E4 | D2 A2 x2 | x6 | x6 | x6 | x6 | x6 | x6 | x6 | x2 A2 G2 | G2 G2 F2 | x6 | %281
 x6 | x6 | x6 | x6 | x6 | x6 | G2 G4 | F2 x3 x | G2 F2 E2 | A2 A2 x2 | G2 G2 x2 | x6 | x6 || %294
[K:D] x6 | x6 | x6 | x6 | x6 | x6 | x6 | x6 | x6 | x6 | x2 B3 x | x6 | x6 | x6 | x6 | x6 | %310
 x2 x2 x ^G | A x x2 x F | x6 | x6 | x6 | x6 | x6 | x6 | x6 | x6 | x6 | x6 | x6 | x6 | x6 | x6 | %326
 x6 | x6 | x6 | x6 | x6 | x6 | x6 | x6 | x6 | x6 | x6 | x6 | x6 | x6 | x6 | x6 | x6 | x6 | %344
 =cd G x x2 | x6 | x6 | x6 | x6 | x6 | x2 A3 A | D2 D3 D | G2 G3 G | F2 x4 | x6 | x6 | x6 | x6 | %358
 x6 | x6 | x6 | x2 E3 E | x2 D2 D2 | D2 D2 D2 | D2 E2 E2 | E2 E2 E2 | D2 D2 D2 | D2 E2 E2 | %368
 E2 EF G2 | x d x4 ||[K:F] x6 | x6 | x6 | x6 | x6 | D3/2 x/ x4 | x6 | x6 | x6 | x6 | x6 | x6 | x6 | %383
 x6 | x6 | x6 | x6 | x6 | x6 | x6 | x6 | x6 | x6 | x6 | x6 | x6 | x6 | x6 | x6 | x6 | x6 | x6 | %402
 x6 | x6 | x6 | x6 | x6 | x6 | x6 | x6 | x6 | G2 G4 | F2 x4 | x6 | x6 | x6 | x6 | x6 | x6 |] %419

